X:443
T: "Trost"
N: Z1123
O: Europa, Mitteleuropa, Deutschland, Rhein
R: religioeses Lied
M: 2/4
L: 1/8
K: F
FG | A2AB | c2d2 | c2B2 | A2
c2 | d2f2 | e2e2 | d4 | c2
c2 | f2c2 | d2AB | c2B2 | A2
c2 | d2c2 | B2A2 | G4 | F2

